svgs/fstop.svg

<svg xmlns="http://www.w3.org/2000/svg" viewBox="0 0 192 192"><path d="M96 53.477a42.534 42.534 0 0 0-30.068 12.455A42.534 42.534 0 0 0 53.477 96a42.534 42.534 0 0 0 12.455 30.068 42.527 42.527 0 0 0 70.51-16.928 42.52 42.52 0 0 0-15.447-47.542A42.527 42.527 0 0 0 96 53.477Z" fill="none" stroke="#000" stroke-width="8" stroke-linecap="round" stroke-linejoin="round"/><path d="M86.494 63.827a8.76 8.76 0 0 0-5.163 15.856 8.754 8.754 0 0 0 5.163 1.663 8.758 8.758 0 1 0 0-17.519Zm-30.571 40.219 15.52-14.173 15.743 13.726 1.109 1.155 25.368-23.983 22.449 22.449m-48.171 1.701-21.784 20.197" fill="none" stroke="#000" stroke-width="8" stroke-linecap="round" stroke-linejoin="round"/><path d="M96 16.5a79.529 79.529 0 0 0-56.215 23.285A79.529 79.529 0 0 0 16.5 96a79.529 79.529 0 0 0 23.285 56.215A79.529 79.529 0 0 0 96 175.5a79.529 79.529 0 0 0 56.215-23.285A79.529 79.529 0 0 0 175.5 96a79.529 79.529 0 0 0-23.285-56.215A79.529 79.529 0 0 0 96 16.5Zm11.006 120.574 9.57 35.717M84.994 54.926l-9.57-35.717m61.65 87.797 35.717 9.57M54.926 84.994l-35.717-9.57m106.859-9.492 26.147-26.147m-86.283 86.283-26.147 26.147" fill="none" stroke="#000" stroke-width="8" stroke-linecap="round" stroke-linejoin="round"/></svg>

<svg
    xmlns="http://www.w3.org/2000/svg"
    viewBox="0 0 192 192"
    id="vector">
    <path
        id="path"
        d="M 96 53.477 C 84.726 53.477 73.903 57.96 65.932 65.932 C 57.96 73.903 53.477 84.726 53.477 96 C 53.477 107.274 57.96 118.097 65.932 126.068 C 73.903 134.04 84.726 138.523 96 138.523 C 104.979 138.523 113.731 135.68 120.995 130.402 C 128.258 125.125 133.667 117.68 136.442 109.14 C 139.217 100.601 139.217 91.399 136.442 82.86 C 133.667 74.32 128.258 66.875 120.995 61.598 C 113.731 56.32 104.979 53.477 96 53.477 Z"
        fill="none"
        stroke="#000000"
        stroke-width="8"
        stroke-linecap="round"
        stroke-linejoin="round"/>
    <path
        id="path_1"
        d="M 86.494 63.827 C 84.64 63.821 82.832 64.404 81.331 65.49 C 79.829 66.577 78.711 68.112 78.137 69.875 C 77.563 71.637 77.563 73.537 78.137 75.299 C 78.711 77.061 79.829 78.597 81.331 79.683 C 82.832 80.77 84.64 81.352 86.494 81.346 C 88.347 81.352 90.155 80.77 91.657 79.683 C 93.158 78.597 94.277 77.061 94.85 75.299 C 95.424 73.537 95.424 71.637 94.85 69.875 C 94.277 68.112 93.158 66.577 91.657 65.49 C 90.155 64.404 88.347 63.821 86.494 63.827 Z M 55.923 104.046 L 71.443 89.873 L 87.186 103.599 L 88.295 104.754 L 113.663 80.771 L 136.112 103.22 M 87.941 104.921 L 66.157 125.118"
        fill="none"
        stroke="#000000"
        stroke-width="8"
        stroke-linecap="round"
        stroke-linejoin="round"/>
    <path
        id="path_2"
        d="M 96 16.5 C 74.923 16.5 54.688 24.882 39.785 39.785 C 24.882 54.688 16.5 74.923 16.5 96 C 16.5 117.077 24.882 137.312 39.785 152.215 C 54.688 167.118 74.923 175.5 96 175.5 C 117.077 175.5 137.312 167.118 152.215 152.215 C 167.118 137.312 175.5 117.077 175.5 96 C 175.5 74.923 167.118 54.688 152.215 39.785 C 137.312 24.882 117.077 16.5 96 16.5 Z M 107.006 137.074 L 116.576 172.791 M 84.994 54.926 L 75.424 19.209 M 137.074 107.006 L 172.791 116.576 M 54.926 84.994 L 19.209 75.424 M 126.068 65.932 L 152.215 39.785 M 65.932 126.068 L 39.785 152.215"
        fill="none"
        stroke="#000000"
        stroke-width="8"
        stroke-linecap="round"
        stroke-linejoin="round"/>
</svg>
